_includes/icons/ios-email.svg

<svg fill="#666" height="50" viewBox="0 0 50 50" width="50" xmlns="http://www.w3.org/2000/svg"><path d="m26.5 2c-12.879822 0-23.3532587 10.390892-23.4941406 23.238281v.011719.011719c.1410162 12.571333 10.3913706 22.738281 22.9941406 22.738281 8.066476 0 15.175135-4.158892 19.279297-10.453125a1.0005662 1.0005662 0 1 0 -1.675781-1.09375c-3.747839 5.747767-10.223992 9.546875-17.603516 9.546875-11.525178 0-20.8567807-9.256949-20.9921875-20.75.1355422-11.769 9.6900615-21.25 21.4921875-21.25 9.97955 0 18.072118 7.877339 18.462891 17.759766-.191802 4.400219-1.992771 8.149662-4.339844 10.832031-2.482551 2.837201-5.589714 4.408203-7.623047 4.408203-1.11059 0-1.9846-.876329-1.994141-1.984375.0091-.102705.203964-2.227517 1.146485-4.701172a1.0002377 1.0002377 0 0 0 .007812-.027344l6.767578-16.916015a1.0001 1.0001 0 0 0 -.957031-1.382813 1.0001 1.0001 0 0 0 -.898437.640625l-1.34375 3.359375c-.608727-1.36029-1.451349-2.43826-2.503907-3.226562-1.700865-1.273847-3.853859-1.761719-6.224609-1.761719-2.802688 0-6.40871 1.748203-9.476562 4.896484-3.067854 3.148282-5.523438 7.782128-5.523438 13.603516 0 5.234548 4.265452 9.5 9.5 9.5 3.050599 0 5.283894-1.280983 6.839844-2.837891.250098-.250251.480575-.507508.701172-.767578.202933 2.011805 1.896669 3.605469 3.958984 3.605469 2.966667 0 6.359504-1.928998 9.126953-5.091797 2.420451-2.766229 4.335379-6.538617 4.777344-10.964844a1.0001 1.0001 0 0 0 .095703-.443359c0-.329885-.009931-.658273-.025391-.984375.004607-.173437.025391-.340425.025391-.515625a1.0001 1.0001 0 0 0 -.09375-.431641c-.97596-10.406164-9.747628-18.568359-20.40625-18.568359zm.5 11c2.09725 0 3.777756.428878 5.025391 1.363281 1.200862.899375 2.081153 2.306762 2.53125 4.556641l-4.257813 10.642578a1.0002377 1.0002377 0 0 0 -.015625.039062l-.359375.896485a1.0001 1.0001 0 0 0 -.050781.078125c-.785502 1.256175-1.658966 2.882782-2.947266 4.171875s-2.91338 2.251953-5.425781 2.251953c-4.153452 0-7.5-3.346548-7.5-7.5 0-5.261612 2.196431-9.378016 4.955078-12.208984 2.758647-2.830969 6.15361-4.291016 8.044922-4.291016z"/></svg>

<svg xmlns="http://www.w3.org/2000/svg" viewBox="0 0 50 50" width="50" height="50" fill="#666"><path style="line-height:normal;text-indent:0;text-align:start;text-decoration-line:none;text-decoration-style:solid;text-decoration-color:#000;text-transform:none;block-progression:tb;isolation:auto;mix-blend-mode:normal" d="M 26.5 2 C 13.620178 2 3.1467413 12.390892 3.0058594 25.238281 L 3.0058594 25.25 L 3.0058594 25.261719 C 3.1468756 37.833052 13.39723 48 26 48 C 34.066476 48 41.175135 43.841108 45.279297 37.546875 A 1.0005662 1.0005662 0 1 0 43.603516 36.453125 C 39.855677 42.200892 33.379524 46 26 46 C 14.474822 46 5.1432193 36.743051 5.0078125 25.25 C 5.1433547 13.481 14.697874 4 26.5 4 C 36.47955 4 44.572118 11.877339 44.962891 21.759766 C 44.771089 26.159985 42.97012 29.909428 40.623047 32.591797 C 38.140496 35.428998 35.033333 37 33 37 C 31.88941 37 31.0154 36.123671 31.005859 35.015625 C 31.014959 34.91292 31.209823 32.788108 32.152344 30.314453 A 1.0002377 1.0002377 0 0 0 32.160156 30.287109 L 38.927734 13.371094 A 1.0001 1.0001 0 0 0 37.970703 11.988281 A 1.0001 1.0001 0 0 0 37.072266 12.628906 L 35.728516 15.988281 C 35.119789 14.627991 34.277167 13.550021 33.224609 12.761719 C 31.523744 11.487872 29.37075 11 27 11 C 24.197312 11 20.59129 12.748203 17.523438 15.896484 C 14.455584 19.044766 12 23.678612 12 29.5 C 12 34.734548 16.265452 39 21.5 39 C 24.550599 39 26.783894 37.719017 28.339844 36.162109 C 28.589942 35.911858 28.820419 35.654601 29.041016 35.394531 C 29.243949 37.406336 30.937685 39 33 39 C 35.966667 39 39.359504 37.071002 42.126953 33.908203 C 44.547404 31.141974 46.462332 27.369586 46.904297 22.943359 A 1.0001 1.0001 0 0 0 47 22.5 C 47 22.170115 46.990069 21.841727 46.974609 21.515625 C 46.979216 21.342188 47 21.1752 47 21 A 1.0001 1.0001 0 0 0 46.90625 20.568359 C 45.93029 10.162195 37.158622 2 26.5 2 z M 27 13 C 29.09725 13 30.777756 13.428878 32.025391 14.363281 C 33.226253 15.262656 34.106544 16.670043 34.556641 18.919922 L 30.298828 29.5625 A 1.0002377 1.0002377 0 0 0 30.283203 29.601562 L 29.923828 30.498047 A 1.0001 1.0001 0 0 0 29.873047 30.576172 C 29.087545 31.832347 28.214081 33.458954 26.925781 34.748047 C 25.637481 36.03714 24.012401 37 21.5 37 C 17.346548 37 14 33.653452 14 29.5 C 14 24.238388 16.196431 20.121984 18.955078 17.291016 C 21.713725 14.460047 25.108688 13 27 13 z"/></svg>
